X: 126
T: Miss Margaret Robertson's Jigg
R: jig
B: William Shepherd "1st Collection" 1793 p.12 #6
F: http://imslp.org/wiki/File:PMLP73094-Shepherd_Collections_HMT.pdf
C: William Shepherd (17??-1812)
Z: 2012 John Chambers <jc:trillian.mit.edu>
M: 6/8
L: 1/8
K: G
B |\
{d}TcBc ABc | (B/c/d)B G2D | TE2c F2d | BcB ABc |\
{d}TcBc ABc | (B/c/d)B G2D | TE2c FAd | BcA "_Fine"HG2 :|
D |\
B,DG GDB, | CEc c2A | Bdc BAG | FAG FED |\
B,DG GDB, | CEc c2A | Bdc BAG | "_DC al Fine"{c}d3 d2 |]
